X:18111
T:Vall\aa{}t from north J\"amtland
S:Alistair Cochrane
R:Vall\aa{}t
O:Sweden
M:4/4
A:J\"amtland
K:DDor
e2 | f2a2 g2ef | d3c A2F2 \
|1 A2c2 d2B2 | A6 \
:|2 A2c2 d2^c2 | d6 :: A2 |\
M:6/4
^c8-c2 A2 | d2e2 ^c6 A2 | def2 a2g2 ef d2 |\
M:4/4
e6e2 | f2a2g2ef | d3c A2F2 | A2c2d2^c2 | d6 :|**
